!!!OTL: O STRASSBURG DU WUNDERSCHOENE STADT
!!!ARE: Europa, Mitteleuropa, Deutschland, Sueddeutschland; Schlesien;     Westfalen
!!!SCT: E1392
!!!YEM: Copyright 1995, estate of Helmut Schaffrath.
**kern
*ICvox
*Ivox
*M2/4
*k[f#]
*G:
{8d
=1
4g
8f#
8g
=2
4a
8g}
{8a
=3
8b
8dd
8cc
8b
=4
4a
8r}
{8d
=5
4g
8f#
8g
=6
4a
8g}
{8a
=7
8b
8dd
8cc
8b
=8
4a
8r}
{8b
=9
8cc
8cc
8ee
8cc
=10
8.b
16cc
8dd}
{8b
=11
8a
8a
8b
8a
=12
8g
8b
8dd}
{8b
=13
8cc
8cc
8ee
8cc
=14
8.b
16cc
8dd}
{8b
=15
8a
8a
8b
8a
=16
4g
8r}
==
!!!AGN: Staende -, Soldaten - Lied
!!!ONB: ESAC (Essen Associative Code) Database: ERK3
!!!AMT: simple duple
!!!AIN: vox
!!!EED: Helmut Schaffrath
!!!EEV: 1.0
*-
!!!title: @{OTL} [@{SCT}]
